X:33
T:Boré. HA.034
M:C
L:1/4
Q:1/2=100
S:Henry Atkinson’s original MS,Hartburn,N’umberland,1694.
R:.Bourée
O:England
A:Hartburn,Northumberland
Z:vmp.Chris Partington.Jan.2004
K:Bb
“_No Key Sig.”G|GA/B/Ad|BA/G/^FE/E/|GA/B/Ad|B2G||
A|Bc/d/cf|dc/B/cF|BA/G/ed|c2B2|
AA/B/cA|dGF>f|d(c/B/) (A/B/) c|B2G|]

